svg/food/drink_line.svg

<?xml version="1.0" encoding="UTF-8"?>
<svg width="24px" height="24px" viewBox="0 0 24 24" version="1.1" xmlns="http://www.w3.org/2000/svg" xmlns:xlink="http://www.w3.org/1999/xlink">
    <title>drink_line</title>
    <g id="Icon" stroke="none" stroke-width="1" fill="none" fill-rule="evenodd">
        <g id="Food" transform="translate(-144.000000, -1.000000)">
            <g id="drink_line" transform="translate(144.000000, 1.000000)">
                <path d="M24,0 L24,24 L0,24 L0,0 L24,0 Z M12.5935,23.2578 L12.5819,23.2595 L12.5109,23.295 L12.4919,23.2987 L12.4767,23.295 L12.4057,23.2595 C12.3958,23.2564 12.387,23.259 12.3821,23.2649 L12.378,23.2758 L12.3609,23.7031 L12.3659,23.7235 L12.3769,23.7357 L12.4805,23.8097 L12.4953,23.8136 L12.5071,23.8097 L12.6107,23.7357 L12.6233,23.7197 L12.6267,23.7031 L12.6096,23.2758 C12.6076,23.2657 12.601,23.2593 12.5935,23.2578 Z M12.8584,23.1453 L12.8445,23.1473 L12.6598,23.2397 L12.6499,23.2499 L12.6472,23.2611 L12.6651,23.6906 L12.6699,23.7034 L12.6784,23.7105 L12.8793,23.8032 C12.8914,23.8069 12.9022,23.803 12.9078,23.7952 L12.9118,23.7812 L12.8777,23.1665 C12.8753,23.1546 12.8674,23.147 12.8584,23.1453 Z M12.143,23.1473 C12.1332,23.1424 12.1222,23.1453 12.1156,23.1526 L12.1099,23.1665 L12.0758,23.7812 C12.0751,23.7927 12.0828,23.8019 12.0926,23.8046 L12.1083,23.8032 L12.3092,23.7105 L12.3186,23.7024 L12.3225,23.6906 L12.3404,23.2611 L12.3372,23.2485 L12.3278,23.2397 L12.143,23.1473 Z" id="MingCute" fill-rule="nonzero"></path>
                <path d="M12.1846,2.4212 C12.5043,1.97086 13.1285,1.86496 13.5789,2.18467 C13.9945615,2.47977769 14.1167698,3.03438361 13.8816589,3.472166 L13.8154,3.57896 L13.5165,4.00006 L16.5,4.00006 C17.2796706,4.00006 17.9204457,4.59495439 17.9931332,5.3556011 L18,5.50006 L18,7.00006 C18,7.0284 17.9988,7.05646 17.9965,7.08419 C18.5391571,7.27448214 18.9392852,7.76793959 18.9936777,8.36141991 L19,8.50006 L19,10.0001 C19,10.5113714 18.616301,10.9330556 18.1211261,10.9928495 L18.005,11.0001 L17.0851,20.1991 C16.987915,21.17038 16.206635,21.9216305 15.2477971,21.9943274 L15.095,22.0001 L8.90499,22.0001 C7.9288555,22.0001 7.10360095,21.2974135 6.93585781,20.3505647 L6.91491,20.1991 L5.99501,11.0001 C5.484305,10.9975929 5.06410985,10.612249 5.00668761,10.1163715 L5,10.0001 L5,8.50006 C5,7.84565 5.41907,7.28912 6.00349,7.08419 L6.00087875,7.04235 L6.00087875,7.04235 L6,5.50006 C6,4.72037059 6.59488554,4.07961211 7.35553954,4.00692665 L7.5,4.00006 L11.0871,4.00006 L11.1312375,3.913345 L11.1312375,3.913345 L11.1846,3.82981 L12.1846,2.4212 Z M15.895,12.0001 L8.10499,12.0001 L8.90499,20.0001 L15.095,20.0001 L15.895,12.0001 Z M17,9.00006 L7,9.00006 L7,10.0001 L17,10.0001 L17,9.00006 Z M16,6.00006 L8,6.00006 L8,7.00006 L16,7.00006 L16,6.00006 Z" id="形状" fill="#09244B"></path>
            </g>
        </g>
    </g>
</svg>

<svg xmlns="http://www.w3.org/2000/svg" width="24" height="24"><g fill="none" fill-rule="evenodd"><path d="M24 0v24H0V0h24ZM12.594 23.258l-.012.002-.071.035-.02.004-.014-.004-.071-.036c-.01-.003-.019 0-.024.006l-.004.01-.017.428.005.02.01.013.104.074.015.004.012-.004.104-.074.012-.016.004-.017-.017-.427c-.002-.01-.009-.017-.016-.018Zm.264-.113-.014.002-.184.093-.01.01-.003.011.018.43.005.012.008.008.201.092c.012.004.023 0 .029-.008l.004-.014-.034-.614c-.003-.012-.01-.02-.02-.022Zm-.715.002a.023.023 0 0 0-.027.006l-.006.014-.034.614c0 .012.007.02.017.024l.015-.002.201-.093.01-.008.003-.011.018-.43-.003-.012-.01-.01-.184-.092Z"/><path fill="#09244B" d="M12.185 2.421a1 1 0 0 1 1.697 1.051l-.067.107-.298.421H16.5a1.5 1.5 0 0 1 1.493 1.356L18 5.5V7l-.003.084c.542.19.942.684.997 1.277l.006.14V10a1 1 0 0 1-.879.992l-.116.007-.92 9.2a2 2 0 0 1-1.837 1.794l-.153.006h-6.19a2 2 0 0 1-1.97-1.65l-.02-.15-.92-9.2a1 1 0 0 1-.988-.884L5 10V8.5a1.5 1.5 0 0 1 1.003-1.416l-.002-.042L6 5.5a1.5 1.5 0 0 1 1.356-1.493L7.5 4h3.587l.044-.087.054-.083 1-1.409Zm3.71 9.58h-7.79l.8 8h6.19l.8-8ZM17 9H7v1h10V9Zm-1-3H8v1h8V6Z"/></g></svg>
